X: 1590
T: Anlon McKinney
R: slide
M: 12/8
K: Gmajor
GED G3 GED G2A|Bdd dBd edd dBd|
egg g2e ded B2d|1 edd dBA BGG GBA:|2 edd dBA BGG G2g||
agg bgg edd edd|edd dBA Bdd d2g|agg bgg edd edd|
edd dBA BGG G2d|egd ege ded B2d|edd dBA Bdd d2d|
egd ege ded B2d|edd dBA BGG GBA||

